X: 116
T:Morning Dew, The
M:C|
L:1/8
R:Reel
K:EDor
E3B BAFA|EDEB ADFA|E3B BAFA|BcdB ADFA|!
E3B BAFA|EDEB ADFD|E3B BAFA|BcdB ADFA|]!
B2eB fBeB|B2dB ADFA|B2eB fBeB|dcdB ADFA|!
B2eB fBeB|B2dB ADFA|Bdef gfge|dcdB ADFA|]!
B2GB FBEB|~E3B ADFA|B2GB FBEB|dcdB ADFA|!
"var."B2EB GBEB|~E3B ADFA|BAGF EFGA|BcdB ADFA|]!
